usr/share/icons/biglinux-icons-material/scalable/mimetypes/text-x-cmake.svg

<svg width="24" height="24" viewBox="0 0 24 24" fill="none" xmlns="http://www.w3.org/2000/svg">
<rect x="1" y="1" width="22" height="22" rx="6.6" fill="url(#paint0_radial_6_476)"/>
<path d="M9.375 15.5532C10.7027 14.1709 11.916 12.7341 12.0709 12.3598C12.2259 11.986 12.8363 11.2468 13.4285 10.7181C14.9778 9.33393 15.8813 9.44267 16.6587 11.1063C16.8571 11.5305 17.1301 11.8773 17.2654 11.8773C17.5743 11.8773 19 10.4894 19 10.1879C19 9.79827 18.2683 9.12627 17.8441 9.12627C17.3961 9.12627 16.9677 8.48367 16.9677 7.8126C16.9677 7.30393 15.5677 5.88807 14.5517 5.36913C14.0673 5.1218 13.2334 5 12.0247 5C10.1968 5 9.43287 5.30287 10.6028 5.56373C10.9542 5.64213 11.6155 6.01873 12.0728 6.4014C13.2488 7.38607 13.2017 8.12573 11.8595 9.72033C11.2855 10.4021 10.6756 10.9603 10.5034 10.9603C10.1231 10.9603 5 15.7235 5 16.0768C5 16.3437 6.57267 18.0667 6.81673 18.0667C6.89607 18.0667 8.04733 16.9359 9.375 15.5532Z" fill="#919CAF"/>
<defs>
<radialGradient id="paint0_radial_6_476" cx="0" cy="0" r="1" gradientUnits="userSpaceOnUse" gradientTransform="translate(17.5 1) rotate(116.565) scale(24.5967)">
<stop stop-color="#F4F4F4"/>
<stop offset="1" stop-color="#BBBBBB"/>
</radialGradient>
</defs>
</svg>

<svg xmlns="http://www.w3.org/2000/svg" width="24" height="24" fill="none"><rect width="22" height="22" x="1" y="1" fill="url(#a)" rx="6.6"/><path fill="#919CAF" d="M9.375 15.553c1.328-1.382 2.541-2.819 2.696-3.193.155-.374.765-1.113 1.357-1.642 1.55-1.384 2.453-1.275 3.23.388.2.425.472.771.607.771.31 0 1.735-1.388 1.735-1.69 0-.389-.732-1.06-1.156-1.06-.448 0-.876-.643-.876-1.314 0-.51-1.4-1.925-2.416-2.444C14.067 5.122 13.233 5 12.025 5c-1.828 0-2.592.303-1.422.564.351.078 1.013.455 1.47.837 1.176.985 1.129 1.725-.213 3.32-.574.681-1.184 1.24-1.357 1.24-.38 0-5.503 4.762-5.503 5.116 0 .267 1.573 1.99 1.817 1.99.08 0 1.23-1.131 2.558-2.514Z"/><defs><radialGradient id="a" cx="0" cy="0" r="1" gradientTransform="rotate(116.565 8.441 5.908) scale(24.5967)" gradientUnits="userSpaceOnUse"><stop stop-color="#F4F4F4"/><stop offset="1" stop-color="#BBB"/></radialGradient></defs></svg>
